src/icons/services/contentmarketing.svg

<svg width="43" height="43" viewBox="0 0 43 43" fill="none" xmlns="http://www.w3.org/2000/svg">
<path d="M38.3047 0.265625H32.6094C30.3594 0.265625 28.4609 1.95313 28.25 4.13281L11.0938 5.82031H4.69531C2.30469 5.82031 0.335938 7.71875 0.335938 10.0391V21.6406C0.335938 23.2578 1.32031 24.7344 2.72656 25.4375L5.1875 39.0078C5.67969 41.1875 7.71875 42.8047 10.0391 42.8047C11.5859 42.8047 13.0625 42.1016 14.0469 40.9062C14.8906 39.8516 15.2422 38.5156 14.9609 37.25L13.0625 26.2812L28.1797 29.2344C28.3203 31.5547 30.2188 33.3828 32.5391 33.3828H38.2344C40.625 33.3828 42.6641 31.4141 42.6641 28.9531V4.625C42.6641 2.23437 40.6953 0.265625 38.3047 0.265625ZM12.7813 8.84375L28.1797 7.29688V26L12.7813 22.9766V8.84375ZM3.5 10.0391C3.5 9.54688 3.99219 8.98438 4.69531 8.98438H9.61719V22.6953H4.69531C4.0625 22.6953 3.5 22.2031 3.5 21.6406V10.0391ZM11.5859 38.9375C11.2344 39.3594 10.6719 39.6406 10.0391 39.6406C9.19531 39.6406 8.42188 39.0781 8.28125 38.4453L6.03125 25.8594H9.75781L11.7969 37.8125V37.8828C11.9375 38.375 11.7266 38.7266 11.5859 38.9375ZM39.5 28.9531C39.5 29.6562 38.9375 30.2188 38.2344 30.2188H32.5391C31.8359 30.2188 31.2734 29.6562 31.2734 28.9531V4.625C31.2734 3.92187 31.8359 3.35937 32.5391 3.35937H38.2344C38.9375 3.35937 39.5 3.92187 39.5 4.625V28.9531Z" fill="#9D74D3"/>
</svg>

<svg xmlns="http://www.w3.org/2000/svg" width="43" height="43" fill="none"  ><path d="M38.305.266h-5.695c-2.25 0-4.149 1.688-4.359 3.867L11.094 5.82H4.695C2.305 5.82.336 7.719.336 10.039v11.602c0 1.617.984 3.094 2.391 3.797l2.461 13.57c.492 2.18 2.531 3.797 4.852 3.797a5.21 5.21 0 0 0 4.008-1.898c.844-1.055 1.195-2.391.914-3.656l-1.898-10.969 15.117 2.953c.141 2.32 2.039 4.148 4.359 4.148h5.695a4.46 4.46 0 0 0 4.43-4.43V4.625c0-2.391-1.969-4.359-4.359-4.359zM12.781 8.844L28.18 7.297V26l-15.398-3.023V8.844zM3.5 10.039c0-.492.492-1.055 1.195-1.055h4.922v13.711H4.695c-.633 0-1.195-.492-1.195-1.055V10.039zm8.086 28.898c-.351.422-.914.703-1.547.703-.844 0-1.617-.562-1.758-1.195l-2.25-12.586h3.727l2.039 11.953v.07c.141.492-.07.844-.211 1.055zM39.5 28.953a1.26 1.26 0 0 1-1.266 1.266h-5.695a1.26 1.26 0 0 1-1.266-1.266V4.625a1.26 1.26 0 0 1 1.266-1.266h5.695A1.26 1.26 0 0 1 39.5 4.625v24.328z" fill="#9d74d3"/></svg>
